03/images/icon-firstview-info-github.svg

<svg fill="none" height="50" viewBox="0 0 50 50" width="50" xmlns="http://www.w3.org/2000/svg"><path d="m25 .252441c-13.8125 0-25 11.248559-25 25.121759 0 11.1015 7.1625 20.5157 17.0937 23.8349 1.25.2365 1.7084-.5411 1.7084-1.2079 0-.5965-.0209-2.1773-.0313-4.2715-6.9541 1.5147-8.4208-3.3703-8.4208-3.3703-1.1375-2.8995-2.78125-3.6749-2.78125-3.6749-2.26458-1.5574.175-1.5254.175-1.5254 2.51045.1747 3.82915 2.5884 3.82915 2.5884 2.2292 3.8412 5.8521 2.7312 7.2813 2.09.225-1.6255.8687-2.7312 1.5833-3.3597-5.5521-.6285-11.3875-2.7887-11.3875-12.4138 0-2.7419.9687-4.9831 2.5729-6.7406-.2812-.6349-1.125-3.1893.2188-6.649 0 0 2.0937-.6732 6.875 2.5756 2-.5581 4.125-.8351 6.25-.8479 2.125.0128 4.25.2898 6.25.8479 4.75-3.2488 6.8437-2.5756 6.8437-2.5756 1.3438 3.4597.5 6.0141.25 6.649 1.5938 1.7575 2.5625 3.9987 2.5625 6.7406 0 9.6507-5.8437 11.7747-11.4062 12.3925.875.7542 1.6875 2.2945 1.6875 4.6486 0 3.3617-.0313 6.0631-.0313 6.879 0 .6583.4375 1.4444 1.7188 1.193 10.002-3.2978 17.1583-12.7185 17.1583-23.8029 0-13.8732-11.1938-25.121759-25-25.121759z" fill="#333"/></svg>

<svg width="50" height="50" viewBox="0 0 50 50" fill="none" xmlns="http://www.w3.org/2000/svg">
<path d="M25 0.252441C11.1875 0.252441 0 11.501 0 25.3742C0 36.4757 7.1625 45.8899 17.0937 49.2091C18.3437 49.4456 18.8021 48.668 18.8021 48.0012C18.8021 47.4047 18.7812 45.8239 18.7708 43.7297C11.8167 45.2444 10.35 40.3594 10.35 40.3594C9.2125 37.4599 7.56875 36.6845 7.56875 36.6845C5.30417 35.1271 7.74375 35.1591 7.74375 35.1591C10.2542 35.3338 11.5729 37.7475 11.5729 37.7475C13.8021 41.5887 17.425 40.4787 18.8542 39.8375C19.0792 38.212 19.7229 37.1063 20.4375 36.4778C14.8854 35.8493 9.05 33.6891 9.05 24.064C9.05 21.3221 10.0187 19.0809 11.6229 17.3234C11.3417 16.6885 10.4979 14.1341 11.8417 10.6744C11.8417 10.6744 13.9354 10.0012 18.7167 13.25C20.7167 12.6919 22.8417 12.4149 24.9667 12.4021C27.0917 12.4149 29.2167 12.6919 31.2167 13.25C35.9667 10.0012 38.0604 10.6744 38.0604 10.6744C39.4042 14.1341 38.5604 16.6885 38.3104 17.3234C39.9042 19.0809 40.8729 21.3221 40.8729 24.064C40.8729 33.7147 35.0292 35.8387 29.4667 36.4565C30.3417 37.2107 31.1542 38.751 31.1542 41.1051C31.1542 44.4668 31.1229 47.1682 31.1229 47.9841C31.1229 48.6424 31.5604 49.4285 32.8417 49.1771C42.8437 45.8793 50 36.4586 50 25.3742C50 11.501 38.8062 0.252441 25 0.252441V0.252441Z" fill="white"/>
</svg>
